X:165
T: ROSEN PFLUECKE ROSEN BLUEHN
N: B0652
O: Europa, Mitteleuropa, Deutschland
R: Moral - Lied, Vergaenglichkeit
M: 6/8
L: 1/8
K: G
 | d2dB2B | dcBA2z |
B2B^c2c | d3z3 |
c2cB2B | c2de2z |
d2BdcA | G3z3

@@@ Tune index: 2383
